_site/images/guide/benefits-vendors.svg

<svg height="322" viewBox="0 0 422 322" width="422" xmlns="http://www.w3.org/2000/svg" xmlns:xlink="http://www.w3.org/1999/xlink"><mask id="a" fill="#fff"><rect fill="#fff" fill-rule="evenodd" height="322" rx="16" width="422"/></mask><g fill="none" fill-rule="evenodd"><rect fill="#d8e5e5" height="322" rx="16" width="422"/><g mask="url(#a)"><g fill-rule="nonzero" transform="translate(54 85)"><path d="m251.987384 235.602375-251.05058103.595475c-.62453531-85.456524 5.75514927-131.87703 19.13905373-139.2615181 20.0758567-11.0767324 27.2258229-6.9820138 49.5313163-8.605738 3.7722525-.3247448 7.7085161-.4871172 11.9728016-.6494896 7.7085161-.3247449 16.0730761-.4871173 25.2576914-.4871173 10.660713 0 26.241757.1623724 43.46291.4871173 2.788186 0 5.740384.1623724 8.528571.1623724 102.342852-1.948469 89.549995 34.7476973 93.158237 147.7588983z" fill="#3377c6"/><g transform="translate(50.298397 147.205755)"><path d="m140.020858 88.3966192h-80.3653803c24.4376362-13.8016553 49.5313163-27.9280554 67.9005463-23.868745 9.676648 1.948469 12.464834 13.314538 12.464834 23.868745z" fill="#ffa79b"/><path d="m21.2769082 88.3966192h-2.1321428c-6.2324172-29.0646623-12.6288455-58.1293246-19.02527376-87.03161456-.32802196-1.29897933 1.64010981-1.78609657 1.96813177-.48711725 6.56043924 29.06466231 12.95686749 58.29169711 19.18928479 87.51873181z" fill="#fff"/></g><g transform="translate(80.923931)"><path d="m116.775818 48.7117246c0 11.3660691-6.068406 16.8867312-13.612911 16.8867312-7.5445051 0-13.7769224-7.6315035-13.7769224-16.8867312s6.3964283-16.8867312 13.7769224-16.8867312c7.380494 0 13.612911 7.6315035 13.612911 16.8867312z" fill="#2252b2"/><path d="m66.0964253 88.0058491c7.3804942 29.2270349-11.9728016 41.7297109-25.585713 40.5931039-21.4854385-1.948469-36.08241581-18.672828-40.01867936-40.7554763 7.70851611-.3247449 16.07307616-.4871173 25.25769106-.4871173 10.6607138 0 26.241757.1623724 43.46291.4871173 2.9521976 0-6.0684063.1623724-3.1162087.1623724z" fill="#ffa79b"/><path d="m7.87252709 95.4749802 50.84340411 17.0491038 6.7244502-13.3145383 8.528571-17.0491036 14.7609883-29.5517795-36.7384597-16.0748692c-1.6401099 3.7345656-44.11895391 58.9411868-44.11895391 58.9411868z" fill="#ffa79b"/><path d="m65.2763704 99.2095457-.3280219.6494897c-6.2324173-6.657269-9.8406589-15.4253794-10.8247248-25.0053519-1.3120878-12.6650484 2.9521977-23.2192554 7.2164832-34.2605797l27.0618118 11.8531863-14.7609883 29.5517796z" fill="#000"/><path d="m55.1076896 5.68303454c15.0890102-12.82742081 60.0280194 5.19591726 55.9277444 24.19348986-3.116209 14.1264001-11.9728015 53.4205246-20.8293945 58.9411868-17.5491749 11.2036968-37.5585146-3.2474483-42.970877-20.4589244-5.5763733-17.3738484-7.0524722-50.0107039 7.8725271-62.67575226z" fill="#ffa79b"/><path d="m53.9596127 35.7219314c6.7244502 6.657269 19.8453287-6.9820139 22.9615374-13.1521657 8.692582 3.5721932 24.7656579 3.5721932 32.9662069-.6494896-7.052472-15.5877519-41.9868109-27.2785658-54.9436784-16.23724156-6.8884612 5.84540696-10.3326918 16.23724156-11.4807687 27.11619336 3.6082416-.1623724 8.0365381.4871172 10.4967028 2.9227035z" fill="#d24a43"/><path d="m32.1461523 28.7399175c4.4282964-5.3582897 15.2530212-5.5206621 20.1733506 2.5979587-2.2961537 7.1443862-4.4282965 14.4511449-6.3964282 21.7579036-4.2642855.4871172-12.1368126-1.948469-15.4170322-6.9820139-3.6082416-6.0077793-3.1162087-11.5284414 1.6401098-17.3738484z" fill="#ffa79b"/><g fill="#2252b2" transform="translate(27.314862)"><path d="m27.7928281 41.4049659c0 11.3660691-6.0684063 16.8867312-13.6129114 16.8867312-7.54450516 0-13.77692243-7.6315035-13.77692243-16.8867312s6.39642825-16.8867312 13.77692243-16.8867312c7.5445051 0 13.6129114 7.6315035 13.6129114 16.8867312z"/><path d="m84.5406275 10.3918346c-2.7881867-3.40982074-7.0524722-4.38405523-11.1527467-5.0335449-6.8884612-.97423449-13.7769224-1.62372415-20.5013726-2.43558622-6.8884612-.81186208-13.7769224-1.78609657-20.6653836-2.43558623-4.7563185-.32474483-9.6766479-.16237242-13.6129114 2.76033106-9.18461498 6.65726902-7.0524722 19.32231739-5.0843405 28.73991749.328022 1.2989793 2.2961538.6494897 1.9681318-.4871172-2.2961537-10.3918346-4.1002745-26.1419589 10.0046699-28.73991754 4.9203294-.81186208 10.0046698.16237242 14.9249992.81186208 5.4123624.64948966 10.8247248 1.29897932 16.2370871 1.94846898 9.020604 1.13660691 25.4217021-.32474483 28.5379107 10.55420698 2.6241757 9.0928553-2.4601647 18.3480829-.4920329 27.4409382.3280219 1.2989793 2.1321427.6494897 1.9681317-.4871172-2.1321427-10.3918346 5.4123624-23.3816278-2.1321427-32.6368555z"/><path d="m36.977443 70.6320007c-12.6288455-2.1108414-20.6653836-13.3145381-18.3692298-25.8172141.1640109-1.2989793-1.6401099-1.7860965-1.9681318-.4871172-2.4601647 13.4769104 6.0684063 25.9795864 19.6813177 28.2528002 1.3120878.1623725 1.9681318-1.7860965.6560439-1.9484689z"/></g><path d="m82.1695015 74.0418214c-2.9521977.3247448-5.7403844-3.0850759-4.4282965-5.845407.4920329-1.1366069-1.1480769-2.1108414-1.8041208-.9742345-1.9681318 4.0593104 1.4760988 9.4176001 6.0684063 8.9304829 1.4760988-.3247449 1.4760988-2.2732138.164011-2.1108414z" fill="#d24a43"/><path d="m97.7505446 54.5571315c-.3280219-1.2989793-2.1321427-.6494896-1.9681317.4871173.6560439 2.9227035-2.6241757 4.5464276-4.9203295 2.9227035-.9840658-.8118621-1.9681317.9742345-.9840658 1.7860965 3.9362635 2.7603311 8.8565929-.811862 7.872527-5.1959173z" fill="#d24a43"/><path d="m82.9895564 39.6188693c-.656044 1.4613518-1.4760989 3.0850759-2.1321428 4.5464277-.4920329 1.1366069 1.1480769 2.1108414 1.8041208.9742345.6560439-1.4613518 1.4760988-3.0850759 2.1321427-4.5464277.492033-1.1366069-1.3120878-2.1108414-1.8041207-.9742345z" fill="#000"/><path d="m103.490929 42.8663176c-.656044 1.4613518-1.476099 3.0850759-2.132143 4.5464277-.492033 1.1366069 1.148077 2.1108414 1.804121.9742345.656044-1.4613518 1.476099-3.0850759 2.132143-4.5464277.492033-1.1366069-1.312088-2.1108414-1.804121-.9742345z" fill="#000"/><g fill="#952c28"><path d="m89.0579627 32.1497382c-1.1480769-.1623724-2.2961538-.4871172-3.2802197-.6494896s-2.1321427.3247448-2.4601647 1.4613517c-.3280219.9742345.328022 2.2732138 1.4760988 2.4355862 1.1480769.1623724 2.2961538.4871173 3.2802197.6494897s2.1321427-.3247448 2.4601647-1.4613517c.3280219-.9742345-.328022-2.1108414-1.4760988-2.4355863z"/><path d="m105.951094 32.7992279c-.820055-.1623724-1.64011-.4871173-2.296154-.6494897-2.460165-.6494896-3.608242 3.0850759-1.148077 3.896938.820055.1623724 1.64011.4871172 2.296154.6494897 2.460165.6494896 3.608241-3.2474483 1.148077-3.896938z"/></g></g><g transform="translate(136 114)"><path d="m241.509707.32472584h-178.8179635l-62.2440519 121.60982816h241.0620154z" fill="#000"/><g fill="#fff"><path d="m145.655143 47.2476101c-13.618326 15.0997516-27.400728 30.1995033-41.019054 45.1368921-.820381.9741775.492229 2.4354438 1.476686 1.4612662l41.019054-45.136892c.820381-.9741776-.656305-2.4354439-1.476686-1.4612663z"/><path d="m150.249277 58.4506516c-10.172725 10.8783157-20.345451 21.9189944-30.682252 32.7973101-.820381.9741775.492228 2.4354438 1.476686 1.4612663 10.172725-10.8783157 20.34545-21.9189944 30.682252-32.7973101.820381-.9741775-.656305-2.4354438-1.476686-1.4612663z"/></g></g><g fill="#feca55" transform="translate(221 62)"><path d="m49.0976865 25.1069763c-11.7649297-3.1983409-24.0200649 1.1194193-31.0463424 11.0342762-1.4706162 2.0789216 1.9608217 3.9979262 3.4314379 1.9190045 5.8824648-8.3156864 16.503582-11.8338614 26.4710919-9.1152716 2.6144288.6396682 3.5948396-3.1983409 1.1438126-3.8380091z"/><path d="m54.6533477 4.63759435c-20.588627-9.75493984-44.1184864-2.23883865-54.08599635 18.07062625-1.14381261 2.2388386 2.28762523 4.3177602 3.43143784 1.9190045 8.98709911-18.23054324 29.57572611-25.58672738 48.53033511-16.63137278 2.2876252 1.11941933 4.4118487-2.23883865 2.1242234-3.35825797z"/></g></g></g></g></svg>

<?xml version="1.0" encoding="UTF-8"?>
<svg width="422px" height="322px" viewBox="0 0 422 322" version="1.1" xmlns="http://www.w3.org/2000/svg" xmlns:xlink="http://www.w3.org/1999/xlink">
    <!-- Generator: Sketch 52.6 (67491) - http://www.bohemiancoding.com/sketch -->
    <title>Group 6</title>
    <desc>Created with Sketch.</desc>
    <defs>
        <rect id="path-1" x="0" y="0" width="422" height="322" rx="16"></rect>
    </defs>
    <g id="Website" stroke="none" stroke-width="1" fill="none" fill-rule="evenodd">
        <g id="15--Software-Escrow" transform="translate(-879.000000, -2700.000000)">
            <g id="Group-19" transform="translate(139.000000, 2700.000000)">
                <g id="Group-17">
                    <g id="Group-6" transform="translate(740.000000, 0.000000)">
                        <rect id="Rectangle" fill="#D8E5E5" x="0" y="0" width="422" height="322" rx="16"></rect>
                        <g id="Teammates-8">
                            <mask id="mask-2" fill="white">
                                <use xlink:href="#path-1"></use>
                            </mask>
                            <g id="Mask"></g>
                            <g id="Window_1" mask="url(#mask-2)">
                                <g transform="translate(54.000000, 85.000000)">
                                    <g id="Man_1_">
                                        <path d="M251.987384,235.602375 L0.936802974,236.19785 C0.312267658,150.741326 6.69195224,104.32082 20.0758567,96.9363319 C40.1517134,85.8595995 47.3016796,89.9543181 69.607173,88.3305939 C73.3794255,88.0058491 77.3156891,87.8434767 81.5799746,87.6811043 C89.2884907,87.3563594 97.6530507,87.193987 106.837666,87.193987 C117.498379,87.193987 133.079423,87.3563594 150.300576,87.6811043 C153.088762,87.6811043 156.04096,87.8434767 158.829147,87.8434767 C261.171999,85.8950077 248.379142,122.591174 251.987384,235.602375 Z" id="Body_1_" fill="#3377C6" fill-rule="nonzero"></path>
                                        <g id="Hand_2_" transform="translate(50.298397, 147.205755)" fill-rule="nonzero">
                                            <path d="M140.020858,88.3966192 L59.6554777,88.3966192 C84.0931139,74.5949639 109.186794,60.4685638 127.556024,64.5278742 C137.232672,66.4763432 140.020858,77.8424122 140.020858,88.3966192 Z" id="XMLID_778_" fill="#FFA79B"></path>
                                            <path d="M21.2769082,88.3966192 L19.1447654,88.3966192 C12.9123482,59.3319569 6.5159199,30.2672946 0.119491643,1.36500464 C-0.208530319,0.0660253147 1.75960145,-0.421091931 2.08762341,0.877887391 C8.64806265,29.9425497 15.0444909,59.1695845 21.2769082,88.3966192 Z" id="XMLID_425_" fill="#FFFFFF"></path>
                                        </g>
                                        <g id="Head_2_" transform="translate(80.923931, 0.000000)" fill-rule="nonzero">
                                            <path d="M116.775818,48.7117246 C116.775818,60.0777937 110.707412,65.5984558 103.162907,65.5984558 C95.6184019,65.5984558 89.3859846,57.9669523 89.3859846,48.7117246 C89.3859846,39.4564969 95.7824129,31.8249934 103.162907,31.8249934 C110.543401,31.8249934 116.775818,39.4564969 116.775818,48.7117246 Z" id="Headphones_1_" fill="#2252B2"></path>
                                            <g id="Head_1_">
                                                <path d="M66.0964253,88.0058491 C73.4769195,117.232884 54.1236237,129.73556 40.5107123,128.598953 C19.0252738,126.650484 4.42829649,109.926125 0.492032943,87.8434767 C8.20054905,87.5187318 16.5651091,87.3563594 25.749724,87.3563594 C36.4104378,87.3563594 51.991481,87.5187318 69.212634,87.8434767 C72.1648316,87.8434767 63.1442277,88.0058491 66.0964253,88.0058491 Z" id="XMLID_777_" fill="#FFA79B"></path>
                                                <path d="M7.87252709,95.4749802 L58.7159312,112.524084 L65.4403814,99.2095457 L73.9689524,82.1604421 L88.7299407,52.6086626 L51.991481,36.5337934 C50.3513711,40.268359 7.87252709,95.4749802 7.87252709,95.4749802 Z" id="XMLID_776_" fill="#FFA79B"></path>
                                                <path d="M65.2763704,99.2095457 L64.9483485,99.8590354 C58.7159312,93.2017664 55.1076896,84.433656 54.1236237,74.8536835 C52.8115359,62.1886351 57.0758214,51.6344281 61.3401069,40.5931038 L88.4019187,52.4462901 L73.6409304,81.9980697 L65.2763704,99.2095457 Z" id="XMLID_434_" fill="#000000"></path>
                                                <path d="M55.1076896,5.68303454 C70.1966998,-7.14438627 115.135709,10.8789518 111.035434,29.8765244 C107.919225,44.0029245 99.0626325,83.297049 90.2060395,88.8177112 C72.6568646,100.021408 52.6475249,85.5702629 47.2351625,68.3587868 C41.6587892,50.9849384 40.1826903,18.3480829 55.1076896,5.68303454 Z" id="XMLID_775_" fill="#FFA79B"></path>
                                                <path d="M53.9596127,35.7219314 C60.6840629,42.3792004 73.8049414,28.7399175 76.9211501,22.5697657 C85.6137321,26.1419589 101.686808,26.1419589 109.887357,21.9202761 C102.834885,6.3325242 67.9005461,-5.3582897 54.9436786,5.68303454 C48.0552174,11.5284415 44.6109868,21.9202761 43.4629099,32.7992279 C47.0711515,32.6368555 51.499448,33.2863451 53.9596127,35.7219314 Z" id="XMLID_432_" fill="#D24A43"></path>
                                                <path d="M32.1461523,28.7399175 C36.5744487,23.3816278 47.3991735,23.2192554 52.3195029,31.3378762 C50.0233492,38.4822624 47.8912064,45.7890211 45.9230747,53.0957798 C41.6587892,53.582897 33.7862621,51.1473108 30.5060425,46.1137659 C26.8978009,40.1059866 27.3898338,34.5853245 32.1461523,28.7399175 Z" id="XMLID_774_" fill="#FFA79B"></path>
                                                <g id="Headphones" transform="translate(27.314862, 0.000000)" fill="#2252B2">
                                                    <path d="M27.7928281,41.4049659 C27.7928281,52.771035 21.7244218,58.2916971 14.1799167,58.2916971 C6.63541154,58.2916971 0.402994267,50.6601936 0.402994267,41.4049659 C0.402994267,32.1497382 6.79942252,24.5182347 14.1799167,24.5182347 C21.7244218,24.5182347 27.7928281,32.1497382 27.7928281,41.4049659 Z" id="XMLID_430_"></path>
                                                    <path d="M84.5406275,10.3918346 C81.7524408,6.98201386 77.4881553,6.00777937 73.3878808,5.3582897 C66.4994196,4.38405521 59.6109584,3.73456555 52.8865082,2.92270348 C45.998047,2.1108414 39.1095858,1.13660691 32.2211246,0.487117246 C27.4648061,0.162372415 22.5444767,0.324744831 18.6082132,3.24744831 C9.42359822,9.90471733 11.555741,22.5697657 13.5238727,31.9873658 C13.8518947,33.2863451 15.8200265,32.6368555 15.4920045,31.5002486 C13.1958508,21.108414 11.39173,5.3582897 25.4966744,2.76033106 C30.4170038,1.94846898 35.5013442,2.92270348 40.4216736,3.57219314 C45.834036,4.2216828 51.2463984,4.87117246 56.6587607,5.52066212 C65.6793647,6.65726903 82.0804628,5.19591729 85.1966714,16.0748691 C87.8208471,25.1677244 82.7365067,34.422952 84.7046385,43.5158073 C85.0326604,44.8147866 86.8367812,44.165297 86.6727702,43.0286901 C84.5406275,32.6368555 92.0851326,19.6470623 84.5406275,10.3918346 Z" id="XMLID_429_"></path>
                                                    <path d="M36.977443,70.6320007 C24.3485975,68.5211593 16.3120594,57.3174626 18.6082132,44.8147866 C18.7722241,43.5158073 16.9681033,43.0286901 16.6400814,44.3276694 C14.1799167,57.8045798 22.7084877,70.3072558 36.3213991,72.5804696 C37.6334869,72.7428421 38.2895309,70.7943731 36.977443,70.6320007 Z" id="XMLID_428_"></path>
                                                </g>
                                                <path d="M82.1695015,74.0418214 C79.2173038,74.3665662 76.4291171,70.9567455 77.741205,68.1964144 C78.2332379,67.0598075 76.5931281,66.085573 75.9370842,67.2221799 C73.9689524,71.2814903 77.413183,76.63978 82.0054905,76.1526628 C83.4815893,75.8279179 83.4815893,73.879449 82.1695015,74.0418214 Z" id="XMLID_424_" fill="#D24A43"></path>
                                                <path d="M97.7505446,54.5571315 C97.4225227,53.2581522 95.6184019,53.9076419 95.7824129,55.0442488 C96.4384568,57.9669523 93.1582372,59.5906764 90.8620834,57.9669523 C89.8780176,57.1550902 88.8939517,58.9411868 89.8780176,59.7530488 C93.8142811,62.5133799 98.7346105,58.9411868 97.7505446,54.5571315 Z" id="XMLID_422_" fill="#D24A43"></path>
                                                <path d="M82.9895564,39.6188693 C82.3335124,41.0802211 81.5134575,42.7039452 80.8574136,44.165297 C80.3653807,45.3019039 82.0054905,46.2761384 82.6615344,45.1395315 C83.3175783,43.6781797 84.1376332,42.0544556 84.7936771,40.5931038 C85.2857101,39.4564969 83.4815893,38.4822624 82.9895564,39.6188693 Z" id="XMLID_421_" fill="#000000"></path>
                                                <path d="M103.490929,42.8663176 C102.834885,44.3276694 102.01483,45.9513935 101.358786,47.4127453 C100.866753,48.5493522 102.506863,49.5235867 103.162907,48.3869798 C103.818951,46.925628 104.639006,45.3019039 105.29505,43.8405521 C105.787083,42.7039452 103.982962,41.7297107 103.490929,42.8663176 Z" id="XMLID_420_" fill="#000000"></path>
                                                <path d="M89.0579627,32.1497382 C87.9098858,31.9873658 86.7618089,31.662621 85.777743,31.5002486 C84.7936771,31.3378762 83.6456003,31.8249934 83.3175783,32.9616003 C82.9895564,33.9358348 83.6456003,35.2348141 84.7936771,35.3971865 C85.941754,35.5595589 87.0898309,35.8843038 88.0738968,36.0466762 C89.0579627,36.2090486 90.2060395,35.7219314 90.5340615,34.5853245 C90.8620834,33.61109 90.2060395,32.4744831 89.0579627,32.1497382 Z" id="XMLID_419_" fill="#952C28"></path>
                                                <path d="M105.951094,32.7992279 C105.131039,32.6368555 104.310984,32.3121106 103.65494,32.1497382 C101.194775,31.5002486 100.046698,35.2348141 102.506863,36.0466762 C103.326918,36.2090486 104.146973,36.5337934 104.803017,36.6961659 C107.263182,37.3456555 108.411258,33.4487176 105.951094,32.7992279 Z" id="XMLID_418_" fill="#952C28"></path>
                                            </g>
                                        </g>
                                    </g>
                                    <g id="Notebook" transform="translate(136.000000, 114.000000)">
                                        <polygon id="XMLID_437_" fill="#000000" fill-rule="nonzero" points="241.509707 0.324725842 62.6917435 0.324725842 0.447691603 121.934554 241.509707 121.934554"></polygon>
                                        <path d="M145.655143,47.2476101 C132.036817,62.3473617 118.254415,77.4471134 104.636089,92.3845022 C103.815708,93.3586797 105.128318,94.819946 106.112775,93.8457684 L147.131829,48.7088764 C147.95221,47.7346988 146.475524,46.2734325 145.655143,47.2476101 Z" id="XMLID_427_" fill="#FFFFFF" fill-rule="nonzero"></path>
                                        <path d="M150.249277,58.4506516 C140.076552,69.3289673 129.903826,80.369646 119.567025,91.2479617 C118.746644,92.2221392 120.059253,93.6834055 121.043711,92.709228 C131.216436,81.8309123 141.389161,70.7902336 151.725963,59.9119179 C152.546344,58.9377404 151.069658,57.4764741 150.249277,58.4506516 Z" id="XMLID_426_" fill="#FFFFFF" fill-rule="nonzero"></path>
                                    </g>
                                    <g id="WiFi" transform="translate(221.000000, 62.000000)">
                                        <path d="M49.0976865,25.1069763 C37.3327568,21.9086354 25.0776216,26.2263956 18.0513441,36.1412525 C16.5807279,38.2201741 20.0121658,40.1391787 21.482782,38.060257 C27.3652468,29.7445706 37.986364,26.2263956 47.9538739,28.9449854 C50.5683027,29.5846536 51.5487135,25.7466445 49.0976865,25.1069763 Z" id="XMLID_389_" fill="#FECA55" fill-rule="nonzero"></path>
                                        <path d="M54.6533477,4.63759435 C34.0647207,-5.11734549 10.5348613,2.3987557 0.567351351,22.7082206 C-0.576461261,24.9470592 2.85497658,27.0259808 3.99878919,24.6272251 C12.9858883,6.39668186 33.5745153,-0.959502279 52.5291243,7.99585232 C54.8167495,9.11527165 56.940973,5.75701367 54.6533477,4.63759435 Z" id="XMLID_388_" fill="#FECA55" fill-rule="nonzero"></path>
                                    </g>
                                </g>
                            </g>
                        </g>
                    </g>
                </g>
            </g>
        </g>
    </g>
</svg>
